X:1
T:Title
%%score ( 1 2 ) { 3 | 4 }
L:1/8
Q:1/4=135
M:6/4
K:D
V:1 treble nm="Grand Piano, Soprano"
V:2 treble 
V:3 bass nm="Choir Pad, Belarus, 77.77"
V:4 bass 
V:1
 D4 [DF]2 [FA]4 [GB]2 | [FA]2 [DF]2 [CE]2 D6 | [FA]4 [DF]2 [Fd]4 [FA]2 | [GB]2 [FA]2 [DF]2 [CE]6 | %4
w: By~H.~O.~Ward,~1900 * * *||||
 [CA]4 [DB]2 [Ec]4 [Ec]2 | d2 c2 [DB]2 A4 G2 | [DF]2 [EG]2 [FA]2 B2 e2 [Gd]2 | c2 B2 [Gc]2 [Fd]6- | %8
w: ||||
 [Fd]6 z6 |] %9
w: |
V:2
 x12 | x12 | x12 | x12 | x12 | .E6 C6 | z6 .G6 | .G6 z6 | x12 |] %9
V:3
 F,4 A,2 D4 D2 | D2 A,2 G,2 F,6 | A,4 A,2 A,4 D2 | D4 A,2 A,6 | A,4 A,2 A,4 A,2 | %5
 ^G,2 A,2 E,2 E,4 A,2 | A,4 D2 D2 B,2 B,2 | A,4 A,2 A,6- | A,6 z6 |] %9
V:4
 D,4 D,2 D,4 G,,2 | A,,4 A,,2 D,6 | D,4 D,2 D,4 D,2 | D,4 F,2 z6 | A,,4 A,,2 z6 | .E,6 A,,6 | %6
 D,4 D,2 G,4 G,2 | z4 A,,2 D,6- | D,6 z6 |] %9

